svg/business/coin_fill.svg

<?xml version="1.0" encoding="UTF-8"?>
<svg width="24px" height="24px" viewBox="0 0 24 24" version="1.1" xmlns="http://www.w3.org/2000/svg" xmlns:xlink="http://www.w3.org/1999/xlink">
    <title>coin_fill</title>
    <g id="页面-1" stroke="none" stroke-width="1" fill="none" fill-rule="evenodd">
        <g id="Business" transform="translate(-384.000000, -48.000000)" fill-rule="nonzero">
            <g id="coin_fill" transform="translate(384.000000, 48.000000)">
                <path d="M24,0 L24,24 L0,24 L0,0 L24,0 Z M12.5934901,23.257841 L12.5819402,23.2595131 L12.5108777,23.2950439 L12.4918791,23.2987469 L12.4918791,23.2987469 L12.4767152,23.2950439 L12.4056548,23.2595131 C12.3958229,23.2563662 12.3870493,23.2590235 12.3821421,23.2649074 L12.3780323,23.275831 L12.360941,23.7031097 L12.3658947,23.7234994 L12.3769048,23.7357139 L12.4804777,23.8096931 L12.4953491,23.8136134 L12.4953491,23.8136134 L12.5071152,23.8096931 L12.6106902,23.7357139 L12.6232938,23.7196733 L12.6232938,23.7196733 L12.6266527,23.7031097 L12.609561,23.275831 C12.6075724,23.2657013 12.6010112,23.2592993 12.5934901,23.257841 L12.5934901,23.257841 Z M12.8583906,23.1452862 L12.8445485,23.1473072 L12.6598443,23.2396597 L12.6498822,23.2499052 L12.6498822,23.2499052 L12.6471943,23.2611114 L12.6650943,23.6906389 L12.6699349,23.7034178 L12.6699349,23.7034178 L12.678386,23.7104931 L12.8793402,23.8032389 C12.8914285,23.8068999 12.9022333,23.8029875 12.9078286,23.7952264 L12.9118235,23.7811639 L12.8776777,23.1665331 C12.8752882,23.1545897 12.8674102,23.1470016 12.8583906,23.1452862 L12.8583906,23.1452862 Z M12.1430473,23.1473072 C12.1332178,23.1423925 12.1221763,23.1452606 12.1156365,23.1525954 L12.1099173,23.1665331 L12.0757714,23.7811639 C12.0751323,23.7926639 12.0828099,23.8018602 12.0926481,23.8045676 L12.108256,23.8032389 L12.3092106,23.7104931 L12.3186497,23.7024347 L12.3186497,23.7024347 L12.3225043,23.6906389 L12.340401,23.2611114 L12.337245,23.2485176 L12.337245,23.2485176 L12.3277531,23.2396597 L12.1430473,23.1473072 Z" id="MingCute" fill-rule="nonzero"></path>
                <path d="M12,5 C14.5917,5 16.9861,5.46489 18.7701,6.25776 C19.6608,6.65364 20.4435,7.15092 21.0171,7.75363 C21.5473917,8.31084417 21.931391,8.99658722 21.9917083,9.78303757 L22,10 L22,14 C22,14.8777 21.5956,15.6385 21.0171,16.2464 C20.4435,16.8491 19.6608,17.3464 18.7701,17.7422 C16.9861,18.5351 14.5917,19 12,19 C9.40829,19 7.01386,18.5351 5.2299,17.7422 C4.33918,17.3464 3.55645,16.8491 2.98287,16.2464 C2.4525875,15.6891583 2.06860576,15.0034382 2.00829133,14.2169687 L2,14 L2,10 C2,9.12233 2.40438,8.3615 2.98287,7.75363 C3.55645,7.15092 4.33918,6.65364 5.2299,6.25776 C7.01386,5.46489 9.40829,5 12,5 Z M20,13.0801 C19.6246,13.3259 19.2105,13.5465 18.7701,13.7422 C16.9861,14.5351 14.5917,15 12,15 C9.40829,15 7.01386,14.5351 5.2299,13.7422 C4.78945,13.5465 4.37541,13.3259 4,13.0801 L4,14 C4,14.2269 4.0993,14.5184 4.43166,14.8676 C4.76892,15.222 5.30422,15.5866 6.04218,15.9146 C7.51558,16.5695 9.62114,17 12,17 C14.3789,17 16.4844,16.5695 17.9578,15.9146 C18.6958,15.5866 19.2311,15.222 19.5683,14.8676 C19.9007,14.5184 20,14.2269 20,14 L20,13.0801 Z" id="形状" fill="#09244B"></path>
            </g>
        </g>
    </g>
</svg>

<svg xmlns="http://www.w3.org/2000/svg" width="24" height="24"><g fill="none" fill-rule="nonzero"><path d="M24 0v24H0V0zM12.593 23.258l-.011.002-.071.035-.02.004-.014-.004-.071-.035c-.01-.004-.019-.001-.024.005l-.004.01-.017.428.005.02.01.013.104.074.015.004.012-.004.104-.074.012-.016.004-.017-.017-.427c-.002-.01-.009-.017-.017-.018m.265-.113-.013.002-.185.093-.01.01-.003.011.018.43.005.012.008.007.201.093c.012.004.023 0 .029-.008l.004-.014-.034-.614c-.003-.012-.01-.02-.02-.022m-.715.002a.023.023 0 0 0-.027.006l-.006.014-.034.614c0 .012.007.02.017.024l.015-.002.201-.093.01-.008.004-.011.017-.43-.003-.012-.01-.01z"/><path fill="#09244B" d="M12 5c2.592 0 4.986.465 6.77 1.258.89.396 1.674.893 2.247 1.496.53.557.914 1.243.975 2.029L22 10v4c0 .878-.404 1.639-.983 2.246-.573.603-1.356 1.1-2.247 1.496C16.986 18.535 14.592 19 12 19c-2.592 0-4.986-.465-6.77-1.258-.89-.396-1.674-.893-2.247-1.496-.53-.557-.914-1.243-.975-2.029L2 14v-4c0-.878.404-1.639.983-2.246.573-.603 1.356-1.1 2.247-1.496C7.014 5.465 9.408 5 12 5m8 8.08c-.375.246-.79.466-1.23.662C16.986 14.535 14.592 15 12 15c-2.592 0-4.986-.465-6.77-1.258A8.689 8.689 0 0 1 4 13.08V14c0 .227.1.518.432.868.337.354.872.719 1.61 1.047C7.516 16.57 9.622 17 12 17c2.379 0 4.484-.43 5.958-1.085.738-.328 1.273-.693 1.61-1.047.333-.35.432-.641.432-.868z"/></g></svg>
